;FLAVOR:RepRap
;TIME:4172
;Filament used: 0.846628m
;Layer height: 0.06
;Generated with Cura_SteamEngine 4.0.0-BETA-2
T0
M82 ;absolute extrusion mode
; info: M303 E0 S200 C8 ; Pid auto-tune 

M140 S60; Start heating up the base
G28 ; Home to top 3 endstops
; Autolevel and adjust first layer
; Adjust this value to fit your own printer!  (positive is thicker)
; This default value is intentionally very high to accommodate the
; variety of print heads used with this printer.  Many of you will
; need tiny values like Z0 or Z0.1.  Use feeler gauges to dial this
; in as accurately as possible.
G29 Z10

; Squirt and wipe ;
M109 S220 ; Wait for the temp to hit 220
G00 X125 Y-60 Z0.1 ;
G92 E0 ;
G01 E25 F100 ; Extrude a little bit to replace oozage from auto levelling
G01 X90 Y-50 F6000 ;
G01 Z5 ;

; Set the extruder to the requested print temperature
M104 S200

M83 ;relative extrusion mode
G1 F1500 E-6.5
;LAYER_COUNT:80
;LAYER:0
M107
G0 F3600 X11.219 Y-13.875 Z0.3
;TYPE:SKIRT
G1 F1500 E6.5
G1 F1800 X25 Y-13.875 E0.60159
G1 X25.792 Y-13.835 E0.03462
G1 X26.577 Y-13.716 E0.03466
G1 X27.345 Y-13.518 E0.03462
G1 X28.09 Y-13.243 E0.03467
G1 X28.803 Y-12.896 E0.03462
G1 X29.478 Y-12.478 E0.03466
G1 X30.107 Y-11.995 E0.03462
G1 X30.684 Y-11.45 E0.03465
G1 X31.204 Y-10.851 E0.03463
G1 X31.66 Y-10.202 E0.03463
G1 X32.049 Y-9.51 E0.03465
G1 X32.367 Y-8.783 E0.03464
G1 X32.61 Y-8.027 E0.03467
G1 X32.775 Y-7.251 E0.03463
G1 X32.861 Y-6.463 E0.0346
G1 X32.875 Y-6 E0.02022
G1 X32.875 Y2.464 E0.36949
G1 X32.835 Y3.256 E0.03462
G1 X32.716 Y4.041 E0.03466
G1 X32.518 Y4.809 E0.03462
G1 X32.243 Y5.554 E0.03467
G1 X31.896 Y6.267 E0.03462
G1 X31.478 Y6.942 E0.03466
G1 X30.995 Y7.571 E0.03462
G1 X30.569 Y8.032 E0.0274
G1 X27.034 Y11.568 E0.21827
G1 X26.446 Y12.1 E0.03462
G1 X25.807 Y12.57 E0.03463
G1 X25.123 Y12.974 E0.03468
G1 X24.403 Y13.306 E0.03461
G1 X23.653 Y13.565 E0.03464
G1 X22.881 Y13.747 E0.03462
G1 X22.094 Y13.85 E0.03465
G1 X21.465 Y13.875 E0.02748
G1 X11.219 Y13.875 E0.44728
G1 X9.628 Y15.031 E0.08585
G1 X8.963 Y15.465 E0.03467
G1 X8.205 Y15.853 E0.03717
G1 X6.298 Y16.703 E0.09114
G1 X5.558 Y16.989 E0.03463
G1 X4.727 Y17.213 E0.03757
G1 X2.678 Y17.648 E0.09144
G1 X1.895 Y17.774 E0.03462
G1 X1.043 Y17.82 E0.03725
G1 X-1.043 Y17.82 E0.09106
G1 X-1.835 Y17.78 E0.03462
G1 X-2.678 Y17.648 E0.03725
G1 X-4.727 Y17.213 E0.09144
G1 X-5.494 Y17.01 E0.03464
G1 X-6.298 Y16.703 E0.03757
G1 X-8.205 Y15.853 E0.09114
G1 X-8.913 Y15.494 E0.03465
G1 X-9.628 Y15.031 E0.03719
G1 X-11.219 Y13.875 E0.08585
G1 X-21.465 Y13.875 E0.44728
G1 X-22.257 Y13.835 E0.03462
G1 X-23.042 Y13.716 E0.03466
G1 X-23.81 Y13.518 E0.03462
G1 X-24.555 Y13.243 E0.03467
G1 X-25.268 Y12.896 E0.03462
G1 X-25.943 Y12.478 E0.03466
G1 X-26.572 Y11.995 E0.03462
G1 X-27.034 Y11.568 E0.02746
G1 X-30.569 Y8.032 E0.21827
G1 X-31.101 Y7.443 E0.03465
G1 X-31.571 Y6.804 E0.03463
G1 X-31.975 Y6.12 E0.03468
G1 X-32.307 Y5.4 E0.03461
G1 X-32.566 Y4.65 E0.03464
G1 X-32.747 Y3.877 E0.03466
G1 X-32.85 Y3.091 E0.03461
G1 X-32.875 Y2.464 E0.02739
G1 X-32.875 Y-6 E0.36949
G1 X-32.835 Y-6.792 E0.03462
G1 X-32.716 Y-7.577 E0.03466
G1 X-32.518 Y-8.345 E0.03462
G1 X-32.243 Y-9.09 E0.03467
G1 X-31.896 Y-9.803 E0.03462
G1 X-31.478 Y-10.478 E0.03466
G1 X-30.995 Y-11.107 E0.03462
G1 X-30.45 Y-11.684 E0.03465
G1 X-29.851 Y-12.204 E0.03463
G1 X-29.202 Y-12.66 E0.03463
G1 X-28.51 Y-13.049 E0.03465
G1 X-27.783 Y-13.367 E0.03464
G1 X-27.027 Y-13.61 E0.03467
G1 X-26.251 Y-13.775 E0.03463
G1 X-25.463 Y-13.861 E0.0346
G1 X-25 Y-13.875 E0.02022
G1 X-11.219 Y-13.875 E0.60159
G1 X-9.627 Y-15.032 E0.08591
G1 X-8.963 Y-15.465 E0.0346
G1 X-8.202 Y-15.855 E0.03733
G1 X-6.296 Y-16.704 E0.09109
G1 X-5.556 Y-16.99 E0.03463
G1 X-4.727 Y-17.213 E0.03748
G1 X-2.678 Y-17.648 E0.09144
G1 X-1.895 Y-17.774 E0.03462
G1 X-1.043 Y-17.82 E0.03725
G1 X1.043 Y-17.82 E0.09106
G1 X1.835 Y-17.78 E0.03462
G1 X2.678 Y-17.648 E0.03725
G1 X4.727 Y-17.213 E0.09144
G1 X5.494 Y-17.01 E0.03464
G1 X6.296 Y-16.704 E0.03747
G1 X8.202 Y-15.855 E0.09109
G1 X8.91 Y-15.496 E0.03465
G1 X9.627 Y-15.032 E0.03728
G1 X11.219 Y-13.875 E0.08591
G0 F3600 X11.105 Y-13.525
G1 F1800 X25 Y-13.525 E0.60657
G1 X25.775 Y-13.485 E0.03388
G1 X26.541 Y-13.366 E0.03384
G1 X27.291 Y-13.168 E0.03386
G1 X28.017 Y-12.894 E0.03387
G1 X28.71 Y-12.547 E0.03383
G1 X29.364 Y-12.13 E0.03386
G1 X29.972 Y-11.648 E0.03387
G1 X30.527 Y-11.106 E0.03386
G1 X31.024 Y-10.51 E0.03388
G1 X31.456 Y-9.866 E0.03385
G1 X31.819 Y-9.181 E0.03384
G1 X32.111 Y-8.462 E0.03388
G1 X32.326 Y-7.717 E0.03385
G1 X32.464 Y-6.954 E0.03385
G1 X32.525 Y-6 E0.04173
G1 X32.525 Y2.464 E0.36949
G1 X32.485 Y3.239 E0.03388
G1 X32.366 Y4.005 E0.03384
G1 X32.168 Y4.755 E0.03386
G1 X31.894 Y5.481 E0.03387
G1 X31.547 Y6.174 E0.03383
G1 X31.13 Y6.828 E0.03386
G1 X30.648 Y7.436 E0.03387
G1 X30.322 Y7.784 E0.02082
G1 X26.787 Y11.32 E0.21827
G1 X26.211 Y11.84 E0.03388
G1 X25.584 Y12.297 E0.03387
G1 X24.914 Y12.688 E0.03386
G1 X24.208 Y13.007 E0.03382
G1 X23.472 Y13.252 E0.03386
G1 X22.715 Y13.421 E0.03386
G1 X21.944 Y13.51 E0.03388
G1 X21.465 Y13.525 E0.02092
G1 X11.105 Y13.525 E0.45225
G1 X9.422 Y14.748 E0.09082
G1 X8.772 Y15.171 E0.03385
G1 X8.063 Y15.533 E0.03475
G1 X6.156 Y16.383 E0.09114
G1 X5.432 Y16.662 E0.03387
G1 X4.655 Y16.871 E0.03512
G1 X2.606 Y17.306 E0.09144
G1 X1.84 Y17.428 E0.03386
G1 X1.043 Y17.47 E0.03484
G1 X-1.043 Y17.47 E0.09106
G1 X-1.818 Y17.43 E0.03388
G1 X-2.606 Y17.306 E0.03482
G1 X-4.655 Y16.871 E0.09144
G1 X-5.404 Y16.671 E0.03384
G1 X-6.156 Y16.383 E0.03515
G1 X-8.063 Y15.533 E0.09114
G1 X-8.754 Y15.181 E0.03385
G1 X-9.422 Y14.748 E0.03475
G1 X-11.105 Y13.525 E0.09082
G1 X-21.465 Y13.525 E0.45225
G1 X-22.24 Y13.485 E0.03388
G1 X-23.006 Y13.366 E0.03384
G1 X-23.756 Y13.168 E0.03386
G1 X-24.482 Y12.894 E0.03387
G1 X-25.175 Y12.547 E0.03383
G1 X-25.829 Y12.13 E0.03386
G1 X-26.437 Y11.648 E0.03387
G1 X-26.787 Y11.32 E0.02094
G1 X-30.322 Y7.784 E0.21827
G1 X-30.841 Y7.208 E0.03385
G1 X-31.298 Y6.582 E0.03383
G1 X-31.689 Y5.911 E0.0339
G1 X-32.008 Y5.205 E0.03382
G1 X-32.253 Y4.469 E0.03386
G1 X-32.421 Y3.711 E0.03389
G1 X-32.51 Y2.941 E0.03384
G1 X-32.525 Y2.464 E0.02083
G1 X-32.525 Y-6 E0.36949
G1 X-32.485 Y-6.775 E0.03388
G1 X-32.366 Y-7.541 E0.03384
G1 X-32.168 Y-8.291 E0.03386
G1 X-31.894 Y-9.017 E0.03387
G1 X-31.547 Y-9.71 E0.03383
G1 X-31.13 Y-10.364 E0.03386
G1 X-30.648 Y-10.972 E0.03387
G1 X-30.106 Y-11.527 E0.03386
G1 X-29.51 Y-12.024 E0.03388
G1 X-28.866 Y-12.456 E0.03385
G1 X-28.181 Y-12.819 E0.03384
G1 X-27.462 Y-13.111 E0.03388
G1 X-26.717 Y-13.326 E0.03385
G1 X-25.954 Y-13.464 E0.03385
G1 X-25 Y-13.525 E0.04173
G1 X-11.105 Y-13.525 E0.60657
G1 X-9.422 Y-14.748 E0.09082
G1 X-8.772 Y-15.171 E0.03385
G1 X-8.06 Y-15.535 E0.03491
G1 X-6.154 Y-16.384 E0.09109
G1 X-5.43 Y-16.663 E0.03387
G1 X-4.655 Y-16.871 E0.03503
G1 X-2.606 Y-17.306 E0.09144
G1 X-1.84 Y-17.428 E0.03386
G1 X-1.043 Y-17.47 E0.03484
G1 X1.043 Y-17.47 E0.09106
G1 X1.818 Y-17.43 E0.03388
G1 X2.606 Y-17.306 E0.03482
G1 X4.655 Y-16.871 E0.09144
G1 X5.404 Y-16.671 E0.03384
G1 X6.154 Y-16.384 E0.03506
G1 X8.06 Y-15.535 E0.09109
G1 X8.751 Y-15.183 E0.03385
G1 X9.422 Y-14.748 E0.03491
G1 X11.105 Y-13.525 E0.09082
G0 F3600 X10.91 Y-13.234
G1 F1800 X10.983 Y-13.175 E0.0041
G1 X25 Y-13.175 E0.6119
G1 X25.756 Y-13.135 E0.03305
G1 X26.504 Y-13.016 E0.03306
G1 X27.235 Y-12.818 E0.03306
G1 X27.942 Y-12.544 E0.0331
G1 X28.615 Y-12.198 E0.03303
G1 X29.248 Y-11.782 E0.03307
G1 X29.834 Y-11.302 E0.03307
G1 X30.366 Y-10.763 E0.03306
G1 X30.838 Y-10.171 E0.03305
G1 X31.245 Y-9.532 E0.03307
G1 X31.583 Y-8.854 E0.03307
G1 X31.847 Y-8.145 E0.03303
G1 X32.035 Y-7.411 E0.03308
G1 X32.144 Y-6.662 E0.03304
G1 X32.175 Y-6 E0.02893
G1 X32.175 Y2.464 E0.36949
G1 X32.135 Y3.22 E0.03305
G1 X32.016 Y3.968 E0.03306
G1 X31.818 Y4.699 E0.03306
G1 X31.544 Y5.406 E0.0331
G1 X31.198 Y6.079 E0.03303
G1 X30.782 Y6.712 E0.03307
G1 X30.074 Y7.537 E0.04746
G1 X26.539 Y11.073 E0.21827
G1 X25.976 Y11.579 E0.03304
G1 X25.363 Y12.024 E0.03307
G1 X24.706 Y12.401 E0.03307
G1 X24.014 Y12.707 E0.03303
G1 X23.292 Y12.938 E0.03309
G1 X22.551 Y13.092 E0.03304
G1 X21.465 Y13.175 E0.04755
G1 X10.983 Y13.175 E0.45758
G1 X10.909 Y13.235 E0.00416
G1 X9.216 Y14.465 E0.09135
G1 X8.581 Y14.877 E0.03304
G1 X7.92 Y15.213 E0.03237
G1 X6.013 Y16.063 E0.09114
G1 X5.306 Y16.335 E0.03307
G1 X4.582 Y16.529 E0.03272
G1 X2.533 Y16.964 E0.09144
G1 X1.785 Y17.082 E0.03306
G1 X1.043 Y17.12 E0.03243
G1 X-1.043 Y17.12 E0.09106
G1 X-1.799 Y17.08 E0.03305
G1 X-2.533 Y16.964 E0.03244
G1 X-4.582 Y16.529 E0.09144
G1 X-5.314 Y16.332 E0.03309
G1 X-6.013 Y16.063 E0.0327
G1 X-7.92 Y15.213 E0.09114
G1 X-8.595 Y14.869 E0.03307
G1 X-9.216 Y14.465 E0.03234
G1 X-10.909 Y13.235 E0.09135
G1 X-10.983 Y13.175 E0.00416
G1 X-21.465 Y13.175 E0.45758
G1 X-22.221 Y13.135 E0.03305
G1 X-22.969 Y13.016 E0.03306
G1 X-23.7 Y12.818 E0.03306
G1 X-24.407 Y12.544 E0.0331
G1 X-25.08 Y12.198 E0.03303
G1 X-25.713 Y11.782 E0.03307
G1 X-26.539 Y11.073 E0.04752
G1 X-30.074 Y7.537 E0.21827
G1 X-30.581 Y6.974 E0.03307
G1 X-31.025 Y6.36 E0.03308
G1 X-31.402 Y5.703 E0.03307
G1 X-31.708 Y5.011 E0.03303
G1 X-31.939 Y4.289 E0.03309
G1 X-32.093 Y3.548 E0.03304
G1 X-32.175 Y2.464 E0.04746
G1 X-32.175 Y-6 E0.36949
G1 X-32.135 Y-6.756 E0.03305
G1 X-32.016 Y-7.504 E0.03306
G1 X-31.818 Y-8.235 E0.03306
G1 X-31.544 Y-8.942 E0.0331
G1 X-31.198 Y-9.615 E0.03303
G1 X-30.782 Y-10.248 E0.03307
G1 X-30.302 Y-10.834 E0.03307
G1 X-29.763 Y-11.366 E0.03306
G1 X-29.171 Y-11.838 E0.03305
G1 X-28.532 Y-12.245 E0.03307
G1 X-27.854 Y-12.583 E0.03307
G1 X-27.145 Y-12.847 E0.03303
G1 X-26.411 Y-13.035 E0.03308
G1 X-25.662 Y-13.144 E0.03304
G1 X-25 Y-13.175 E0.02893
G1 X-10.983 Y-13.175 E0.6119
G1 X-10.91 Y-13.234 E0.0041
G1 X-9.216 Y-14.465 E0.09141
G1 X-8.581 Y-14.878 E0.03307
G1 X-7.917 Y-15.215 E0.03251
G1 X-6.011 Y-16.064 E0.09109
G1 X-5.304 Y-16.335 E0.03305
G1 X-4.582 Y-16.529 E0.03264
G1 X-2.533 Y-16.964 E0.09144
G1 X-1.785 Y-17.082 E0.03306
G1 X-1.043 Y-17.12 E0.03243
G1 X1.043 Y-17.12 E0.09106
G1 X1.799 Y-17.08 E0.03305
G1 X2.533 Y-16.964 E0.03244
G1 X4.582 Y-16.529 E0.09144
G1 X5.314 Y-16.332 E0.03309
G1 X6.011 Y-16.064 E0.0326
G1 X7.917 Y-15.215 E0.09109
G1 X8.592 Y-14.871 E0.03307
G1 X9.216 Y-14.465 E0.0325
G1 X10.91 Y-13.234 E0.09141
G0 F3600 X10.704 Y-12.951
G1 F1800 X10.859 Y-12.825 E0.00872
G1 X25 Y-12.825 E0.61731
G1 X25.738 Y-12.785 E0.03226
G1 X26.466 Y-12.666 E0.0322
G1 X27.178 Y-12.468 E0.03226
G1 X27.864 Y-12.195 E0.03223
G1 X28.517 Y-11.849 E0.03226
G1 X29.129 Y-11.435 E0.03225
G1 X29.692 Y-10.957 E0.03224
G1 X30.2 Y-10.421 E0.03224
G1 X30.647 Y-9.833 E0.03224
G1 X31.028 Y-9.2 E0.03225
G1 X31.339 Y-8.53 E0.03225
G1 X31.575 Y-7.83 E0.03225
G1 X31.734 Y-7.109 E0.03223
G1 X31.815 Y-6.374 E0.03228
G1 X31.825 Y-6 E0.01633
G1 X31.825 Y2.464 E0.36949
G1 X31.785 Y3.202 E0.03226
G1 X31.666 Y3.93 E0.0322
G1 X31.468 Y4.642 E0.03226
G1 X31.195 Y5.328 E0.03223
G1 X30.849 Y5.981 E0.03226
G1 X30.435 Y6.593 E0.03225
G1 X29.827 Y7.289 E0.04034
G1 X26.292 Y10.825 E0.21827
G1 X25.742 Y11.319 E0.03227
G1 X25.142 Y11.75 E0.03225
G1 X24.499 Y12.113 E0.03223
G1 X23.821 Y12.406 E0.03224
G1 X23.115 Y12.623 E0.03224
G1 X22.389 Y12.762 E0.03227
G1 X21.465 Y12.825 E0.04043
G1 X10.861 Y12.825 E0.46291
G1 X10.704 Y12.952 E0.00882
G1 X9.011 Y14.182 E0.09135
G1 X8.39 Y14.583 E0.03227
G1 X7.778 Y14.894 E0.02997
G1 X5.871 Y15.744 E0.09114
G1 X5.181 Y16.008 E0.03225
G1 X4.509 Y16.186 E0.03035
G1 X2.46 Y16.621 E0.09144
G1 X1.731 Y16.735 E0.03221
G1 X1.043 Y16.77 E0.03007
G1 X-1.043 Y16.77 E0.09106
G1 X-1.781 Y16.73 E0.03226
G1 X-2.46 Y16.621 E0.03002
G1 X-4.509 Y16.186 E0.09144
G1 X-5.223 Y15.994 E0.03228
G1 X-5.871 Y15.744 E0.03032
G1 X-7.778 Y14.894 E0.09114
G1 X-8.435 Y14.557 E0.03223
G1 X-9.011 Y14.182 E0.03
G1 X-10.704 Y12.952 E0.09135
G1 X-10.86 Y12.825 E0.00878
G1 X-21.465 Y12.825 E0.46295
G1 X-22.203 Y12.785 E0.03226
G1 X-22.931 Y12.666 E0.0322
G1 X-23.643 Y12.468 E0.03226
G1 X-24.329 Y12.195 E0.03223
G1 X-24.982 Y11.849 E0.03226
G1 X-25.594 Y11.435 E0.03225
G1 X-26.292 Y10.825 E0.04047
G1 X-29.827 Y7.289 E0.21827
G1 X-30.32 Y6.739 E0.03224
G1 X-30.751 Y6.14 E0.03221
G1 X-31.114 Y5.497 E0.03223
G1 X-31.406 Y4.818 E0.03227
G1 X-31.623 Y4.112 E0.03224
G1 X-31.762 Y3.386 E0.03227
G1 X-31.825 Y2.464 E0.04034
G1 X-31.825 Y-6 E0.36949
G1 X-31.785 Y-6.738 E0.03226
G1 X-31.666 Y-7.466 E0.0322
G1 X-31.468 Y-8.178 E0.03226
G1 X-31.195 Y-8.864 E0.03223
G1 X-30.849 Y-9.517 E0.03226
G1 X-30.435 Y-10.129 E0.03225
G1 X-29.957 Y-10.692 E0.03224
G1 X-29.421 Y-11.2 E0.03224
G1 X-28.833 Y-11.647 E0.03224
G1 X-28.2 Y-12.028 E0.03225
G1 X-27.53 Y-12.339 E0.03225
G1 X-26.83 Y-12.575 E0.03225
G1 X-26.109 Y-12.734 E0.03223
G1 X-25.374 Y-12.815 E0.03228
G1 X-25 Y-12.825 E0.01633
G1 X-10.86 Y-12.825 E0.61727
G1 X-10.704 Y-12.951 E0.00875
G1 X-9.01 Y-14.182 E0.09141
G1 X-8.39 Y-14.583 E0.03223
G1 X-7.775 Y-14.895 E0.0301
G1 X-5.869 Y-15.744 E0.09109
G1 X-5.179 Y-16.008 E0.03225
G1 X-4.509 Y-16.186 E0.03026
G1 X-2.46 Y-16.621 E0.09144
G1 X-1.731 Y-16.735 E0.03221
G1 X-1.043 Y-16.77 E0.03007
G1 X1.043 Y-16.77 E0.09106
G1 X1.781 Y-16.73 E0.03226
G1 X2.46 Y-16.621 E0.03002
G1 X4.509 Y-16.186 E0.09144
G1 X5.223 Y-15.994 E0.03228
G1 X5.869 Y-15.744 E0.03024
G1 X7.775 Y-14.895 E0.09109
G1 X8.433 Y-14.559 E0.03225
G1 X9.01 Y-14.182 E0.03009
G1 X10.704 Y-12.951 E0.09141
G0 F3600 X10.498 Y-12.668
G1 F1800 X10.735 Y-12.475 E0.01334
G1 X25 Y-12.475 E0.62272
G1 X25.718 Y-12.435 E0.03139
G1 X26.428 Y-12.316 E0.03143
G1 X27.12 Y-12.118 E0.03142
G1 X27.785 Y-11.845 E0.03138
G1 X28.417 Y-11.5 E0.03143
G1 X29.006 Y-11.087 E0.0314
G1 X29.545 Y-10.611 E0.03139
G1 X30.029 Y-10.079 E0.0314
G1 X30.45 Y-9.496 E0.03139
G1 X30.804 Y-8.869 E0.03143
G1 X31.087 Y-8.208 E0.03139
G1 X31.294 Y-7.519 E0.03141
G1 X31.424 Y-6.811 E0.03142
G1 X31.475 Y-6 E0.03547
G1 X31.475 Y2.464 E0.36949
G1 X31.435 Y3.182 E0.03139
G1 X31.316 Y3.892 E0.03143
G1 X31.118 Y4.584 E0.03142
G1 X30.845 Y5.249 E0.03138
G1 X30.5 Y5.881 E0.03143
G1 X30.087 Y6.47 E0.0314
G1 X29.579 Y7.042 E0.0334
G1 X26.044 Y10.578 E0.21827
G1 X25.508 Y11.058 E0.03141
G1 X24.922 Y11.475 E0.0314
G1 X24.293 Y11.825 E0.03142
G1 X23.63 Y12.102 E0.03137
G1 X22.939 Y12.305 E0.03144
G1 X22.231 Y12.43 E0.03138
G1 X21.465 Y12.475 E0.0335
G1 X10.738 Y12.475 E0.46828
G1 X10.498 Y12.668 E0.01344
G1 X8.805 Y13.898 E0.09135
G1 X8.2 Y14.288 E0.03142
G1 X7.635 Y14.574 E0.02764
G1 X5.728 Y15.424 E0.09114
G1 X5.056 Y15.68 E0.03139
G1 X4.437 Y15.844 E0.02795
G1 X2.388 Y16.279 E0.09144
G1 X1.677 Y16.389 E0.03141
G1 X1.043 Y16.42 E0.02771
G1 X-1.043 Y16.42 E0.09106
G1 X-1.761 Y16.38 E0.03139
G1 X-2.388 Y16.279 E0.02772
G1 X-4.437 Y15.844 E0.09144
G1 X-5.131 Y15.656 E0.03139
G1 X-5.728 Y15.424 E0.02796
G1 X-7.635 Y14.574 E0.09114
G1 X-8.275 Y14.245 E0.03141
G1 X-8.805 Y13.898 E0.02765
G1 X-10.498 Y12.668 E0.09135
G1 X-10.735 Y12.475 E0.01334
G1 X-21.465 Y12.475 E0.46841
G1 X-22.183 Y12.435 E0.03139
G1 X-22.893 Y12.316 E0.03143
G1 X-23.585 Y12.118 E0.03142
G1 X-24.25 Y11.845 E0.03138
G1 X-24.882 Y11.5 E0.03143
G1 X-25.471 Y11.087 E0.0314
G1 X-26.044 Y10.578 E0.03346
G1 X-29.579 Y7.042 E0.21827
G1 X-30.059 Y6.506 E0.03141
G1 X-30.476 Y5.919 E0.03143
G1 X-30.825 Y5.291 E0.03136
G1 X-31.103 Y4.627 E0.03142
G1 X-31.305 Y3.936 E0.03143
G1 X-31.43 Y3.228 E0.03138
G1 X-31.475 Y2.464 E0.03341
G1 X-31.475 Y-6 E0.36949
G1 X-31.435 Y-6.718 E0.03139
G1 X-31.316 Y-7.428 E0.03143
G1 X-31.118 Y-8.12 E0.03142
G1 X-30.845 Y-8.785 E0.03138
G1 X-30.5 Y-9.417 E0.03143
G1 X-30.087 Y-10.006 E0.0314
G1 X-29.611 Y-10.545 E0.03139
G1 X-29.079 Y-11.029 E0.0314
G1 X-28.496 Y-11.45 E0.03139
G1 X-27.869 Y-11.804 E0.03143
G1 X-27.208 Y-12.087 E0.03139
G1 X-26.519 Y-12.294 E0.03141
G1 X-25.811 Y-12.424 E0.03142
G1 X-25 Y-12.475 E0.03547
G1 X-10.738 Y-12.475 E0.62259
G1 X-10.498 Y-12.668 E0.01344
G1 X-8.804 Y-13.899 E0.09141
G1 X-8.2 Y-14.289 E0.03139
G1 X-7.633 Y-14.576 E0.02774
G1 X-5.727 Y-15.425 E0.09109
G1 X-5.054 Y-15.681 E0.03143
G1 X-4.437 Y-15.844 E0.02786
G1 X-2.388 Y-16.279 E0.09144
G1 X-1.677 Y-16.389 E0.03141
G1 X-1.043 Y-16.42 E0.02771
G1 X1.043 Y-16.42 E0.09106
G1 X1.761 Y-16.38 E0.03139
